svg/system/sleep_line.svg

<?xml version="1.0" encoding="UTF-8"?>
<svg width="24px" height="24px" viewBox="0 0 24 24" version="1.1" xmlns="http://www.w3.org/2000/svg" xmlns:xlink="http://www.w3.org/1999/xlink">
    <title>sleep_line</title>
    <g id="Icon" stroke="none" stroke-width="1" fill="none" fill-rule="evenodd">
        <g id="System" transform="translate(-864.000000, -384.000000)">
            <g id="sleep_line" transform="translate(864.000000, 384.000000)">
                <path d="M24,0 L24,24 L0,24 L0,0 L24,0 Z M12.5935,23.2578 L12.5819,23.2595 L12.5109,23.295 L12.4919,23.2987 L12.4767,23.295 L12.4057,23.2595 C12.3958,23.2564 12.387,23.259 12.3821,23.2649 L12.378,23.2758 L12.3609,23.7031 L12.3659,23.7235 L12.3769,23.7357 L12.4805,23.8097 L12.4953,23.8136 L12.5071,23.8097 L12.6107,23.7357 L12.6233,23.7197 L12.6267,23.7031 L12.6096,23.2758 C12.6076,23.2657 12.601,23.2593 12.5935,23.2578 Z M12.8584,23.1453 L12.8445,23.1473 L12.6598,23.2397 L12.6499,23.2499 L12.6472,23.2611 L12.6651,23.6906 L12.6699,23.7034 L12.6784,23.7105 L12.8793,23.8032 C12.8914,23.8069 12.9022,23.803 12.9078,23.7952 L12.9118,23.7812 L12.8777,23.1665 C12.8753,23.1546 12.8674,23.147 12.8584,23.1453 Z M12.143,23.1473 C12.1332,23.1424 12.1222,23.1453 12.1156,23.1526 L12.1099,23.1665 L12.0758,23.7812 C12.0751,23.7927 12.0828,23.8019 12.0926,23.8046 L12.1083,23.8032 L12.3092,23.7105 L12.3186,23.7024 L12.3225,23.6906 L12.3404,23.2611 L12.3372,23.2485 L12.3278,23.2397 L12.143,23.1473 Z" id="MingCute" fill-rule="nonzero"></path>
                <path d="M12,4 C12,4.55228 12.4477,5 13,5 L17.5858,5 L12.2929,10.2929 C12.0069,10.5789 11.9214,11.009 12.0762,11.3827 C12.2309,11.7564 12.5956,12 13,12 L20,12 C20.5523,12 21.0000516,11.5523 21.0000516,11 C21.0000516,10.4477 20.5523,10 20,10 L15.4142,10 L20.7071,4.70711 C20.9931,4.42111 21.0787,3.99099 20.9239,3.61732 C20.7691,3.24364 20.4045,3 20,3 L13,3 C12.4477,3 12,3.44772 12,4 Z M4.00003,10 C3.44774,10 2.9999996,9.55228 2.9999996,9 C2.9999996,8.44772 3.44774,8 4.00003,8 L9.00003,8 C9.40449,8 9.76913,8.24364 9.92391,8.61732 C10.0787,8.99099 9.99313,9.42111 9.70714,9.70711 L6.41424,13 L9.00003,13 C9.55231,13 10.0000626,13.4477 10.0000626,14 C10.0000626,14.5523 9.55231,15 9.00003,15 L4.00003,15 C3.59557,15 3.23093,14.7564 3.07615,14.3827 C2.92137,14.009 3.00692,13.5789 3.29292,13.2929 L6.58582,10 L4.00003,10 Z M12,17 C11.4477,17 11,16.5523 11,16 C11,15.4477 11.4477,15 12,15 L16,15 C16.4045,15 16.7691,15.2436 16.9239,15.6173 C17.0787,15.991 16.9931,16.4211 16.7071,16.7071 L14.4142,19 L16,19 C16.5523,19 17.0000516,19.4477 17.0000516,20 C17.0000516,20.5523 16.5523,21 16,21 L12,21 C11.5956,21 11.2309,20.7564 11.0762,20.3827 C10.9214,20.009 11.0069,19.5789 11.2929,19.2929 L13.5858,17 L12,17 Z" id="形状" fill="#09244B"></path>
            </g>
        </g>
    </g>
</svg>

<svg xmlns="http://www.w3.org/2000/svg" width="24" height="24"><g fill="none" fill-rule="evenodd"><path d="M24 0v24H0V0h24ZM12.594 23.258l-.012.002-.071.035-.02.004-.014-.004-.071-.036c-.01-.003-.019 0-.024.006l-.004.01-.017.428.005.02.01.013.104.074.015.004.012-.004.104-.074.012-.016.004-.017-.017-.427c-.002-.01-.009-.017-.016-.018Zm.264-.113-.014.002-.184.093-.01.01-.003.011.018.43.005.012.008.008.201.092c.012.004.023 0 .029-.008l.004-.014-.034-.614c-.003-.012-.01-.02-.02-.022Zm-.715.002a.023.023 0 0 0-.027.006l-.006.014-.034.614c0 .012.007.02.017.024l.015-.002.201-.093.01-.008.003-.011.018-.43-.003-.012-.01-.01-.184-.092Z"/><path fill="#09244B" d="M12 4a1 1 0 0 0 1 1h4.586l-5.293 5.293A1 1 0 0 0 13 12h7a1 1 0 1 0 0-2h-4.586l5.293-5.293A1 1 0 0 0 20 3h-7a1 1 0 0 0-1 1Zm-8 6a1 1 0 1 1 0-2h5a1 1 0 0 1 .707 1.707L6.414 13H9a1 1 0 1 1 0 2H4a1 1 0 0 1-.707-1.707L6.586 10H4Zm8 7a1 1 0 1 1 0-2h4a1 1 0 0 1 .707 1.707L14.414 19H16a1 1 0 1 1 0 2h-4a1 1 0 0 1-.707-1.707L13.586 17H12Z"/></g></svg>
